src/assets/icons/os/linux.svg

<svg width="24" height="24" viewBox="0 0 24 24" fill="currentColor" xmlns="http://www.w3.org/2000/svg">
    <path
        d="M11.8751 6.81602C11.9141 6.83555 11.9454 6.88242 11.9922 6.88242C12.0352 6.88242 12.1016 6.86679 12.1055 6.82383C12.1133 6.76915 12.0313 6.73399 11.9805 6.71056C11.9141 6.68321 11.8282 6.6715 11.7657 6.70665C11.7501 6.71446 11.7345 6.73399 11.7423 6.74962C11.754 6.80039 11.8321 6.79258 11.8751 6.81602ZM11.0197 6.88242C11.0665 6.88242 11.0978 6.83555 11.1368 6.81602C11.1798 6.79258 11.2579 6.80039 11.2736 6.75352C11.2814 6.7379 11.2657 6.71837 11.2501 6.71056C11.1876 6.6754 11.1017 6.68712 11.0353 6.71446C10.9845 6.7379 10.9025 6.77305 10.9103 6.82773C10.9142 6.86679 10.9806 6.88632 11.0197 6.88242ZM19.6518 17.7721C19.5112 17.6159 19.4447 17.319 19.3705 17.0027C19.3002 16.6863 19.2182 16.3465 18.9604 16.1277C18.9096 16.0848 18.8589 16.0457 18.8042 16.0145C18.7534 15.9832 18.6987 15.9559 18.644 15.9363C19.0034 14.87 18.8628 13.8076 18.4995 12.8468C18.0542 11.6711 17.277 10.6438 16.6833 9.94076C16.0153 9.10098 15.367 8.30417 15.3787 7.12849C15.3982 5.33567 15.5779 2.00392 12.418 2.00001C8.41832 1.9922 9.41824 6.03874 9.37528 7.28082C9.30888 8.19481 9.1253 8.9135 8.49644 9.80795C7.75822 10.6868 6.71925 12.1046 6.2271 13.585C5.99275 14.2841 5.88338 14.995 5.98493 15.6668C5.73105 15.8934 5.53966 16.241 5.33655 16.4558C5.1725 16.6238 4.93424 16.6863 4.67254 16.78C4.41085 16.8738 4.12571 17.0144 3.94995 17.3464C3.86792 17.4987 3.84058 17.6628 3.84058 17.8307C3.84058 17.9831 3.86402 18.1393 3.88745 18.2916C3.93432 18.608 3.9851 18.9049 3.9187 19.1041C3.71559 19.6665 3.68825 20.0571 3.83277 20.3422C3.9812 20.6274 4.27805 20.7524 4.61786 20.8227C5.29359 20.9633 6.21148 20.9281 6.93407 21.3109C7.70745 21.7171 8.49254 21.8616 9.11749 21.7171C9.57057 21.6156 9.94164 21.3421 10.1291 20.9281C10.6174 20.9242 11.1564 20.7172 12.0157 20.6703C12.5977 20.6235 13.3281 20.8773 14.1678 20.8305C14.1913 20.9203 14.2225 21.0101 14.2655 21.0922V21.0961C14.5897 21.7484 15.1951 22.0452 15.8396 21.9944C16.488 21.9437 17.1715 21.5648 17.7261 20.9047C18.2573 20.2641 19.1323 19.9985 19.7143 19.647C20.0033 19.4712 20.2377 19.2525 20.2572 18.9322C20.2728 18.6119 20.0853 18.2565 19.6518 17.7721ZM11.9883 5.40988C12.3711 4.54277 13.3242 4.55839 13.7069 5.39426C13.9608 5.9489 13.8476 6.60119 13.539 6.97225C13.4765 6.94101 13.3085 6.8707 13.0468 6.78086C13.0898 6.73399 13.1679 6.6754 13.1992 6.60119C13.3867 6.14029 13.1914 5.54659 12.8437 5.53487C12.5586 5.51534 12.3008 5.95671 12.3828 6.43324C12.2227 6.35512 12.0157 6.29653 11.8751 6.26138C11.836 5.99187 11.8634 5.69111 11.9883 5.40988ZM10.3986 4.9607C10.7931 4.9607 11.2111 5.51534 11.1447 6.26919C11.008 6.30825 10.8673 6.36683 10.7463 6.44886C10.7931 6.10123 10.6174 5.66377 10.3713 5.6833C10.0432 5.71064 9.98851 6.51135 10.301 6.78086C10.34 6.81211 10.3752 6.77305 10.0705 6.99569C9.46121 6.42542 9.66041 4.9607 10.3986 4.9607ZM9.86742 7.3316C10.1096 7.15193 10.3986 6.94101 10.4182 6.92148C10.6017 6.74962 10.9455 6.36683 11.5079 6.36683C11.7852 6.36683 12.1172 6.45667 12.5195 6.71446C12.7656 6.8746 12.9609 6.88632 13.4023 7.07771C13.7304 7.21442 13.9374 7.45659 13.8124 7.78859C13.7109 8.06591 13.3828 8.35104 12.9258 8.49556C12.4922 8.63618 12.1524 9.12051 11.4337 9.07755C11.2814 9.06973 11.1603 9.03849 11.0587 8.99552C10.7463 8.85881 10.5822 8.58931 10.2775 8.40963C9.94164 8.22215 9.76196 8.00342 9.70337 7.81203C9.64869 7.62064 9.70337 7.46049 9.86742 7.3316ZM9.99632 20.3774C9.89086 21.7484 8.28162 21.721 7.05516 21.0805C5.88729 20.4633 4.37569 20.8266 4.06713 20.2251C3.97338 20.0415 3.97338 19.729 4.16868 19.1939V19.1861C4.26242 18.8892 4.19212 18.5611 4.14524 18.2526C4.09837 17.9479 4.07494 17.6667 4.1804 17.4714C4.3171 17.2097 4.5124 17.1159 4.75847 17.03C5.16078 16.8855 5.21937 16.8972 5.52404 16.6433C5.73886 16.4207 5.8951 16.1395 6.08258 15.9403C6.28179 15.7254 6.47318 15.6239 6.77393 15.6707C7.09031 15.7176 7.36373 15.9363 7.62933 16.2957L8.39489 17.6862C8.76595 18.4635 10.0783 19.5767 9.99632 20.3774ZM9.94164 19.3658C9.78149 19.108 9.56667 18.8345 9.37918 18.6002C9.6565 18.6002 9.93382 18.5143 10.0315 18.2526C10.1213 18.0104 10.0315 17.6706 9.74243 17.28C9.21513 16.5691 8.24646 16.0106 8.24646 16.0106C7.71916 15.6825 7.42231 15.2802 7.28561 14.8427C7.1489 14.4052 7.16843 13.9326 7.27389 13.4678C7.477 12.5733 8.00039 11.7023 8.3363 11.1555C8.42614 11.0891 8.36755 11.2805 7.99649 11.9679C7.66448 12.5968 7.04344 14.0498 7.89493 15.1864C7.91837 14.3779 8.10976 13.5537 8.43395 12.7843C8.90266 11.714 9.89086 9.85873 9.96898 8.38229C10.0119 8.41354 10.1486 8.50728 10.2111 8.54243C10.3908 8.64789 10.5275 8.80413 10.7033 8.94475C11.1876 9.33534 11.8165 9.30409 12.3594 8.99162C12.6016 8.85491 12.7969 8.69867 12.9804 8.64008C13.3671 8.519 13.6757 8.30417 13.8515 8.05419C14.1522 9.2416 14.8553 10.9563 15.3045 11.7922C15.5427 12.2374 16.0193 13.1788 16.2263 14.3154C16.3552 14.3115 16.4997 14.331 16.652 14.3701C17.191 12.9757 16.195 11.4719 15.7419 11.0539C15.5584 10.8743 15.5505 10.7962 15.6404 10.8001C16.1325 11.2375 16.7809 12.1164 17.0153 13.1046C17.1246 13.5576 17.1442 14.0303 17.0309 14.499C17.6715 14.7646 18.4331 15.1981 18.23 15.8582C18.1441 15.8543 18.105 15.8582 18.066 15.8582C18.1909 15.4637 17.9136 15.1708 17.1754 14.8388C16.4098 14.5029 15.7693 14.5029 15.6794 15.327C15.2068 15.4911 14.9647 15.9012 14.8436 16.3933C14.7342 16.8308 14.703 17.3581 14.6717 17.9518C14.6522 18.2526 14.5311 18.6549 14.4061 19.0845C13.1523 19.979 11.4103 20.3696 9.94164 19.3658ZM19.9955 18.9166C19.9603 19.5728 18.3862 19.6938 17.5269 20.7328C17.0114 21.3461 16.3786 21.6859 15.824 21.7288C15.2693 21.7718 14.7889 21.5414 14.5077 20.975C14.3241 20.5414 14.4139 20.0727 14.5506 19.5571C14.6951 19.0025 14.91 18.4322 14.9373 17.9713C14.9686 17.3776 15.0037 16.8581 15.1014 16.4597C15.2029 16.0574 15.3592 15.7879 15.6365 15.6356C15.6482 15.6278 15.6638 15.6239 15.6755 15.6161C15.7068 16.1316 15.9607 16.655 16.4098 16.7683C16.902 16.8972 17.609 16.4754 17.9097 16.1316C18.2613 16.1199 18.523 16.0965 18.7925 16.3308C19.1791 16.6629 19.0698 17.5143 19.4604 17.9557C19.8744 18.4088 20.0072 18.7174 19.9955 18.9166ZM10.0198 7.80812C10.0979 7.88233 10.2033 7.98389 10.3322 8.08544C10.59 8.28855 10.9494 8.49947 11.3985 8.49947C11.8516 8.49947 12.2774 8.26902 12.6406 8.07763C12.832 7.97608 13.0664 7.80421 13.2187 7.67141C13.371 7.53861 13.4492 7.42534 13.3398 7.41362C13.2304 7.40191 13.2382 7.51518 13.1054 7.61282C12.9336 7.73781 12.7266 7.90186 12.5625 7.99561C12.2735 8.15965 11.8009 8.39401 11.3946 8.39401C10.9884 8.39401 10.6642 8.20653 10.4221 8.01513C10.301 7.91749 10.1994 7.81984 10.1213 7.74563C10.0627 7.69094 10.0471 7.56595 9.95335 7.55424C9.89867 7.55033 9.88305 7.69875 10.0198 7.80812Z" />
</svg>

<svg xmlns="http://www.w3.org/2000/svg" width="24" height="24" fill="currentColor" viewBox="0 0 24 24"><path d="M11.875 6.816c.04.02.07.066.117.066.043 0 .11-.015.113-.058.008-.055-.074-.09-.125-.113-.066-.028-.152-.04-.214-.004-.016.007-.031.027-.024.043.012.05.09.043.133.066m-.855.066c.046 0 .078-.046.117-.066.043-.023.12-.016.137-.062.007-.016-.008-.036-.024-.043-.062-.036-.148-.024-.215.003-.05.024-.133.059-.125.114.004.039.07.058.11.054m8.632 10.89c-.14-.156-.207-.453-.282-.77-.07-.316-.152-.655-.41-.874a1 1 0 0 0-.316-.192c.36-1.066.219-2.128-.144-3.09-.446-1.175-1.223-2.202-1.817-2.905-.668-.84-1.316-1.637-1.304-2.813.02-1.792.199-5.124-2.961-5.128-4-.008-3 4.039-3.043 5.28-.066.915-.25 1.634-.879 2.528-.738.879-1.777 2.297-2.269 3.777-.234.7-.344 1.41-.242 2.082-.254.226-.445.574-.648.789-.164.168-.403.23-.664.324-.262.094-.547.234-.723.566a1 1 0 0 0-.11.485c0 .152.024.308.047.46.047.317.098.614.032.813-.203.563-.23.953-.086 1.238.148.285.445.41.785.48.676.141 1.593.106 2.316.489.773.406 1.559.55 2.183.406.454-.101.825-.375 1.012-.789.488-.004 1.027-.21 1.887-.258.582-.047 1.312.207 2.152.16q.034.137.098.262v.004c.324.652.93.95 1.574.898.648-.05 1.332-.43 1.886-1.09.531-.64 1.406-.905 1.988-1.257.29-.176.524-.394.543-.715.016-.32-.172-.675-.605-1.16M11.988 5.41c.383-.867 1.336-.852 1.719-.016.254.555.14 1.207-.168 1.578a5 5 0 0 0-.492-.191c.043-.047.12-.106.152-.18.188-.46-.008-1.054-.355-1.066-.285-.02-.543.422-.461.898a3 3 0 0 0-.508-.172c-.039-.27-.012-.57.113-.851m-1.59-.45c.395 0 .813.555.747 1.31a1.4 1.4 0 0 0-.399.179c.047-.348-.129-.785-.375-.766-.328.028-.382.828-.07 1.098.039.031.074-.008-.23.215-.61-.57-.41-2.035.328-2.035m-.53 2.372c.242-.18.53-.391.55-.41.184-.172.527-.555 1.09-.555.277 0 .61.09 1.012.347.246.16.44.172.882.364.328.136.535.379.41.71-.101.278-.43.563-.886.708-.434.14-.774.625-1.492.582a1.1 1.1 0 0 1-.375-.082c-.313-.137-.477-.407-.781-.586-.336-.188-.516-.407-.575-.598q-.082-.287.164-.48m.128 13.045c-.105 1.371-1.714 1.344-2.94.704-1.169-.618-2.68-.254-2.989-.856-.094-.184-.094-.496.102-1.031v-.008c.093-.297.023-.625-.024-.933-.047-.305-.07-.586.035-.782.137-.261.332-.355.578-.441.403-.145.461-.133.766-.387.215-.222.371-.503.559-.703.199-.215.39-.316.69-.27.317.048.59.266.856.626l.766 1.39c.371.777 1.683 1.89 1.601 2.691m-.054-1.011a8 8 0 0 0-.563-.766c.277 0 .555-.086.652-.347.09-.243 0-.582-.289-.973-.527-.71-1.496-1.27-1.496-1.27-.527-.328-.824-.73-.96-1.167-.137-.438-.118-.91-.012-1.375.203-.895.726-1.766 1.062-2.312.09-.067.032.124-.34.812-.332.629-.953 2.082-.101 3.218a6.8 6.8 0 0 1 .539-2.402c.469-1.07 1.457-2.925 1.535-4.402.043.032.18.125.242.16.18.106.316.262.492.403.485.39 1.114.36 1.656.047.243-.137.438-.293.621-.352.387-.121.696-.336.871-.586.301 1.188 1.004 2.902 1.454 3.738.238.445.714 1.387.921 2.523q.197-.004.426.055c.539-1.394-.457-2.898-.91-3.316-.184-.18-.192-.258-.102-.254.492.438 1.14 1.316 1.375 2.305.11.453.13.925.016 1.394.64.266 1.402.7 1.199 1.36-.086-.005-.125 0-.164 0 .125-.395-.152-.688-.89-1.02-.766-.336-1.407-.336-1.497.488-.472.164-.714.574-.835 1.066-.11.438-.141.965-.172 1.559-.02.3-.14.703-.266 1.132-1.254.895-2.996 1.286-4.464.282m10.054-.45c-.036.657-1.61.778-2.47 1.817-.515.613-1.147.953-1.702.996s-1.035-.188-1.316-.754c-.184-.434-.094-.902.043-1.418.144-.554.359-1.125.386-1.586.032-.593.067-1.113.164-1.511.102-.403.258-.672.535-.824l.04-.02c.03.516.285 1.039.734 1.152.492.13 1.199-.293 1.5-.636.351-.012.613-.036.883.199.386.332.277 1.183.667 1.625.414.453.547.761.535.96M10.02 7.809c.078.074.183.176.312.277.258.204.617.414 1.066.414.454 0 .88-.23 1.243-.421.191-.102.425-.274.578-.407s.23-.246.12-.257c-.109-.012-.1.101-.234.199-.171.125-.378.289-.543.383-.288.164-.761.398-1.167.398s-.73-.187-.973-.379a4 4 0 0 1-.3-.27c-.06-.054-.075-.18-.169-.19-.054-.005-.07.144.067.253"/></svg>
